icons/huggingface-light.svg

<svg width="256" height="256" viewBox="0 0 256 256" fill="none" xmlns="http://www.w3.org/2000/svg">
<rect width="256" height="256" rx="60" fill="#F4F2ED"/>
<path d="M127.426 192.261C145.665 192.261 163.156 185.022 176.053 172.137C188.949 159.251 196.195 141.774 196.195 123.551C196.195 105.328 188.949 87.8514 176.053 74.9657C163.156 62.08 145.665 54.8409 127.426 54.8409C109.188 54.8409 91.6961 62.08 78.7995 74.9657C65.9029 87.8514 58.6577 105.328 58.6577 123.551C58.6577 141.774 65.9029 159.251 78.7995 172.137C91.6961 185.022 109.188 192.261 127.426 192.261Z" fill="#FFD21E"/>
<path d="M196.195 123.551C196.195 105.328 188.949 87.8513 176.053 74.9656C163.156 62.0799 145.665 54.8409 127.426 54.8409C109.188 54.8409 91.6961 62.0799 78.7995 74.9656C65.9029 87.8513 58.6577 105.328 58.6577 123.551C58.6577 141.774 65.9029 159.251 78.7995 172.137C91.6961 185.022 109.188 192.261 127.426 192.261C145.665 192.261 163.156 185.022 176.053 172.137C188.949 159.251 196.195 141.774 196.195 123.551ZM50.7419 123.551C50.7419 113.489 52.7254 103.526 56.5791 94.2301C60.4329 84.9343 66.0814 76.4878 73.2022 69.373C80.323 62.2583 88.7766 56.6145 98.0803 52.7641C107.384 48.9136 117.356 46.9318 127.426 46.9318C137.496 46.9318 147.468 48.9136 156.772 52.7641C166.076 56.6145 174.529 62.2583 181.65 69.373C188.771 76.4878 194.419 84.9343 198.273 94.2301C202.127 103.526 204.11 113.489 204.11 123.551C204.11 143.872 196.031 163.36 181.65 177.729C167.269 192.098 147.764 200.17 127.426 200.17C107.088 200.17 87.5833 192.098 73.2022 177.729C58.8211 163.36 50.7419 143.872 50.7419 123.551Z" fill="#FF9D0B"/>
<path d="M149.768 104.866C152.301 105.736 153.291 110.916 155.844 109.572C157.572 108.655 158.99 107.246 159.917 105.524C160.845 103.802 161.24 101.844 161.054 99.8975C160.867 97.9509 160.107 96.1033 158.869 94.5884C157.632 93.0735 155.972 91.9593 154.101 91.3868C152.23 90.8142 150.23 90.809 148.356 91.3718C146.482 91.9346 144.817 93.0402 143.571 94.5487C142.326 96.0571 141.556 97.9007 141.359 99.8463C141.163 101.792 141.548 103.752 142.466 105.479C143.673 107.753 147.512 104.055 149.788 104.846L149.768 104.866ZM103.164 104.866C100.631 105.736 99.6219 110.916 97.0888 109.572C95.3602 108.655 93.9426 107.246 93.0153 105.524C92.0879 103.802 91.6925 101.844 91.8791 99.8975C92.0656 97.9509 92.8258 96.1033 94.0633 94.5884C95.3009 93.0735 96.9603 91.9593 98.8316 91.3868C100.703 90.8142 102.702 90.809 104.577 91.3718C106.451 91.9346 108.116 93.0402 109.362 94.5487C110.607 96.0571 111.377 97.9007 111.573 99.8463C111.77 101.792 111.385 103.752 110.467 105.479C109.259 107.753 105.4 104.055 103.144 104.846L103.164 104.866Z" fill="#3A3B45"/>
<path d="M126.931 152.301C146.384 152.301 152.658 134.98 152.658 126.082C152.658 121.455 149.551 122.918 144.564 125.37C139.953 127.644 133.759 130.788 126.951 130.788C112.723 130.788 101.225 117.184 101.225 126.082C101.225 134.98 107.478 152.301 126.951 152.301H126.931Z" fill="#FF323D"/>
<path fill-rule="evenodd" clip-rule="evenodd" d="M112.03 147.773C113.074 145.653 114.544 143.77 116.349 142.243C118.153 140.715 120.254 139.575 122.518 138.895C123.31 138.658 124.121 140.022 124.972 141.426C125.764 142.77 126.595 144.135 127.426 144.135C128.317 144.135 129.207 142.79 130.058 141.465C130.949 140.081 131.819 138.737 132.67 138.994C136.922 140.342 140.474 143.302 142.565 147.239C149.947 141.426 152.658 131.935 152.658 126.082C152.658 121.455 149.551 122.918 144.564 125.37L144.287 125.509C139.715 127.783 133.62 130.788 126.931 130.788C120.243 130.788 114.167 127.783 109.576 125.509C104.431 122.958 101.205 121.356 101.205 126.082C101.205 132.113 104.094 142.019 112.03 147.773Z" fill="#3A3B45"/>
<path d="M173.931 114.159C175.637 114.159 177.273 113.482 178.479 112.277C179.685 111.072 180.363 109.437 180.363 107.733C180.363 106.029 179.685 104.394 178.479 103.189C177.273 101.984 175.637 101.307 173.931 101.307C172.226 101.307 170.59 101.984 169.384 103.189C168.177 104.394 167.5 106.029 167.5 107.733C167.5 109.437 168.177 111.072 169.384 112.277C170.59 113.482 172.226 114.159 173.931 114.159ZM81.9103 114.159C83.6161 114.159 85.252 113.482 86.4581 112.277C87.6643 111.072 88.3419 109.437 88.3419 107.733C88.3419 106.029 87.6643 104.394 86.4581 103.189C85.252 101.984 83.6161 101.307 81.9103 101.307C80.2046 101.307 78.5687 101.984 77.3625 103.189C76.1563 104.394 75.4787 106.029 75.4787 107.733C75.4787 109.437 76.1563 111.072 77.3625 112.277C78.5687 113.482 80.2046 114.159 81.9103 114.159ZM68.6712 135.909C65.4653 135.909 62.6156 137.214 60.6168 139.607C58.9125 141.71 57.9832 144.335 57.9848 147.041C56.7388 146.667 55.4467 146.467 54.1457 146.448C51.0783 146.448 48.3078 147.614 46.3486 149.73C44.6007 151.544 43.4987 153.882 43.2126 156.383C42.9265 158.884 43.4722 161.41 44.7655 163.571C43.0141 165 41.7716 166.955 41.2232 169.147C40.7482 170.927 40.2733 174.683 42.8063 178.519C41.8567 179.978 41.2917 181.653 41.1637 183.388C41.0357 185.124 41.3488 186.863 42.0741 188.445C44.0926 193.032 49.1389 196.631 58.9347 200.507C65.0101 202.919 70.5907 204.461 70.6303 204.481C77.6801 206.432 84.9464 207.495 92.2602 207.644C103.857 207.644 112.149 204.085 116.918 197.086C124.596 185.835 123.508 175.534 113.554 165.608C108.072 160.111 104.411 152.024 103.659 150.244C102.115 144.985 98.0387 139.132 91.2905 139.132C89.4952 139.16 87.7327 139.616 86.1494 140.463C84.5661 141.309 83.2077 142.52 82.1874 143.996C80.2084 141.505 78.269 139.547 76.5276 138.42C74.2037 136.848 71.4767 135.977 68.6712 135.909ZM68.6712 143.818C69.6804 143.818 70.9272 144.253 72.2728 145.103C76.5078 147.792 84.6413 161.772 87.6295 167.209C88.6189 169.028 90.3406 169.799 91.8644 169.799C94.9318 169.799 97.3065 166.774 92.1613 162.919C84.4038 157.125 87.1149 147.654 90.8156 147.081C90.9739 147.041 91.152 147.041 91.2905 147.041C94.6547 147.041 96.1389 152.834 96.1389 152.834C96.1389 152.834 100.493 163.749 107.973 171.223C115.434 178.677 115.829 184.669 110.387 192.637C106.667 198.075 99.5625 199.716 92.2602 199.716C84.7204 199.716 76.9629 197.936 72.6291 196.829C72.4114 196.769 46.0122 189.315 49.3566 182.988C49.9107 181.92 50.8408 181.485 52.0084 181.485C56.7183 181.485 65.2674 188.485 68.968 188.485C69.7794 188.485 70.3533 188.149 70.6105 187.298C72.1739 181.663 46.7444 179.29 48.8817 171.144C49.2775 169.701 50.2867 169.127 51.7314 169.127C57.9453 169.127 71.9166 180.062 74.8455 180.062C75.0632 180.062 75.2413 180.002 75.3204 179.864C76.7848 177.491 75.9735 175.83 65.6236 169.582C55.3133 163.334 48.0505 159.577 52.1667 155.089C52.6417 154.574 53.3145 154.337 54.1457 154.337C60.4189 154.337 75.2413 167.822 75.2413 167.822C75.2413 167.822 79.2387 171.974 81.6728 171.974C82.2269 171.974 82.7019 171.777 83.0185 171.223C84.7204 168.336 67.0682 154.97 66.0787 149.453C65.4059 145.697 66.5537 143.818 68.6712 143.818Z" fill="#FF9D0B"/>
<path d="M110.387 192.637C115.829 184.649 115.434 178.658 107.973 171.203C100.493 163.749 96.1389 152.815 96.1389 152.815C96.1389 152.815 94.5162 146.487 90.8156 147.081C87.1149 147.674 84.4038 157.125 92.1613 162.919C99.8989 168.712 90.6177 172.647 87.6295 167.209C84.6611 161.772 76.5078 147.792 72.2728 145.103C68.0577 142.434 65.0893 143.917 66.0787 149.453C67.0682 154.97 84.7402 168.336 83.0185 171.203C81.2968 174.11 75.2413 167.822 75.2413 167.822C75.2413 167.822 56.3027 150.6 52.1667 155.089C48.0505 159.577 55.3133 163.334 65.6236 169.582C75.9735 175.83 76.7848 177.491 75.3204 179.864C73.8362 182.237 51.0189 162.998 48.8817 171.164C46.7444 179.29 72.1739 181.643 70.6105 187.279C69.0274 192.914 52.6813 176.641 49.3566 182.968C45.9924 189.315 72.4114 196.77 72.6291 196.829C81.1385 199.043 102.808 203.73 110.387 192.637Z" fill="#FFD21E"/>
<path d="M187.171 135.909C190.376 135.909 193.246 137.214 195.225 139.607C196.929 141.71 197.858 144.335 197.857 147.041C199.109 146.665 200.408 146.465 201.716 146.448C204.783 146.448 207.554 147.615 209.513 149.73C211.261 151.544 212.363 153.882 212.649 156.383C212.935 158.884 212.389 161.41 211.096 163.571C212.84 165.003 214.075 166.958 214.619 169.147C215.093 170.927 215.568 174.683 213.035 178.519C213.985 179.978 214.55 181.653 214.678 183.388C214.806 185.124 214.493 186.863 213.768 188.445C211.749 193.032 206.703 196.631 196.927 200.507C190.832 202.919 185.251 204.461 185.211 204.481C178.162 206.432 170.895 207.495 163.581 207.645C151.985 207.645 143.693 204.085 138.924 197.086C131.245 185.835 132.334 175.534 142.288 165.608C147.789 160.111 151.451 152.024 152.203 150.244C153.746 144.985 157.803 139.132 164.551 139.132C166.346 139.16 168.109 139.617 169.692 140.463C171.276 141.309 172.634 142.52 173.654 143.996C175.633 141.505 177.573 139.547 179.334 138.42C181.652 136.852 184.372 135.98 187.171 135.909ZM187.171 143.818C186.161 143.818 184.934 144.253 183.569 145.103C179.354 147.792 171.2 161.772 168.212 167.209C167.809 167.985 167.201 168.636 166.455 169.093C165.709 169.549 164.852 169.794 163.977 169.8C160.93 169.8 158.535 166.774 163.7 162.919C171.438 157.125 168.727 147.654 165.026 147.081C164.869 147.055 164.71 147.042 164.551 147.041C161.187 147.041 159.703 152.835 159.703 152.835C159.703 152.835 155.349 163.749 147.888 171.223C140.408 178.677 140.012 184.669 145.474 192.637C149.175 198.075 156.299 199.716 163.581 199.716C171.141 199.716 178.879 197.936 183.232 196.829C183.43 196.77 209.849 189.315 206.505 182.988C205.931 181.92 205.021 181.485 203.853 181.485C199.143 181.485 190.574 188.485 186.893 188.485C186.062 188.485 185.488 188.149 185.251 187.298C183.668 181.663 209.097 179.29 206.96 171.144C206.584 169.701 205.575 169.127 204.11 169.127C197.896 169.127 183.925 180.062 180.996 180.062C180.798 180.062 180.62 180.002 180.541 179.864C179.077 177.491 179.868 175.83 190.198 169.582C200.548 163.334 207.811 159.577 203.655 155.089C203.2 154.575 202.527 154.337 201.716 154.337C195.423 154.337 180.6 167.822 180.6 167.822C180.6 167.822 176.603 171.975 174.189 171.975C173.917 171.987 173.647 171.923 173.409 171.79C173.171 171.657 172.975 171.461 172.843 171.223C171.121 168.336 188.773 154.97 189.763 149.453C190.436 145.697 189.288 143.818 187.171 143.818Z" fill="#FF9D0B"/>
<path d="M145.474 192.637C140.032 184.649 140.408 178.658 147.888 171.203C155.349 163.749 159.703 152.815 159.703 152.815C159.703 152.815 161.325 146.487 165.046 147.081C168.727 147.674 171.438 157.125 163.7 162.919C155.943 168.712 165.244 172.647 168.212 167.209C171.2 161.772 179.354 147.792 183.569 145.103C187.784 142.434 190.772 143.917 189.763 149.453C188.773 154.97 171.121 168.336 172.843 171.203C174.545 174.11 180.6 167.822 180.6 167.822C180.6 167.822 199.559 150.6 203.675 155.089C207.791 159.577 200.548 163.334 190.218 169.582C179.868 175.83 179.077 177.491 180.521 179.864C182.005 182.237 204.823 162.998 206.96 171.164C209.097 179.29 183.688 181.643 185.251 187.279C186.834 192.914 203.16 176.641 206.505 182.968C209.849 189.315 183.45 196.77 183.232 196.829C174.703 199.043 153.034 203.73 145.474 192.637Z" fill="#FFD21E"/>
</svg>

<svg xmlns="http://www.w3.org/2000/svg" width="256" height="256" fill="none"><rect width="256" height="256" fill="#F4F2ED" rx="60"/><path fill="#FFD21E" d="M127.426 192.261a68.8 68.8 0 0 0 48.627-20.124 68.7 68.7 0 0 0 20.142-48.586c0-18.223-7.246-35.7-20.142-48.585a68.8 68.8 0 0 0-48.627-20.125 68.8 68.8 0 0 0-48.627 20.125 68.68 68.68 0 0 0-20.141 48.585c0 18.223 7.245 35.7 20.141 48.586a68.8 68.8 0 0 0 48.627 20.124"/><path fill="#FF9D0B" d="M196.195 123.551c0-18.223-7.246-35.7-20.142-48.585a68.8 68.8 0 0 0-48.627-20.125 68.8 68.8 0 0 0-48.627 20.125 68.68 68.68 0 0 0-20.141 48.585c0 18.223 7.245 35.7 20.141 48.586a68.8 68.8 0 0 0 48.627 20.124 68.8 68.8 0 0 0 48.627-20.124 68.7 68.7 0 0 0 20.142-48.586m-145.453 0a76.6 76.6 0 0 1 5.837-29.32 76.6 76.6 0 0 1 16.623-24.858A76.7 76.7 0 0 1 98.08 52.764a76.74 76.74 0 0 1 58.692 0 76.7 76.7 0 0 1 24.878 16.609 76.6 76.6 0 0 1 16.623 24.857 76.6 76.6 0 0 1 5.837 29.321 76.6 76.6 0 0 1-22.46 54.178 76.72 76.72 0 0 1-54.224 22.441 76.72 76.72 0 0 1-54.224-22.441 76.6 76.6 0 0 1-22.46-54.178"/><path fill="#3A3B45" d="M149.768 104.866c2.533.87 3.523 6.05 6.076 4.706a9.89 9.89 0 0 0 5.21-9.675 9.893 9.893 0 0 0-12.698-8.526 9.89 9.89 0 0 0-6.997 8.475 9.9 9.9 0 0 0 1.107 5.633c1.207 2.274 5.046-1.424 7.322-.633zm-46.604 0c-2.533.87-3.542 6.05-6.075 4.706a9.89 9.89 0 0 1-5.21-9.675 9.88 9.88 0 0 1 6.953-8.51 9.9 9.9 0 0 1 10.53 3.162 9.88 9.88 0 0 1 1.105 10.93c-1.208 2.274-5.067-1.424-7.323-.633z"/><path fill="#FF323D" d="M126.931 152.301c19.453 0 25.727-17.321 25.727-26.219 0-4.627-3.107-3.164-8.094-.712-4.611 2.274-10.805 5.418-17.613 5.418-14.228 0-25.726-13.604-25.726-4.706s6.253 26.219 25.726 26.219z"/><path fill="#3A3B45" fill-rule="evenodd" d="M112.03 147.773a17.2 17.2 0 0 1 10.488-8.878c.792-.237 1.603 1.127 2.454 2.531.792 1.344 1.623 2.709 2.454 2.709.891 0 1.781-1.345 2.632-2.67.891-1.384 1.761-2.728 2.612-2.471a17.03 17.03 0 0 1 9.895 8.245c7.382-5.813 10.093-15.304 10.093-21.157 0-4.627-3.107-3.164-8.094-.712l-.277.139c-4.572 2.274-10.667 5.279-17.356 5.279-6.688 0-12.764-3.005-17.355-5.279-5.145-2.551-8.371-4.153-8.371.573 0 6.031 2.889 15.937 10.825 21.691" clip-rule="evenodd"/><path fill="#FF9D0B" d="M173.931 114.159a6.43 6.43 0 0 0 4.548-1.882 6.425 6.425 0 0 0-4.548-10.97 6.43 6.43 0 0 0-4.547 1.882 6.42 6.42 0 0 0 0 9.088 6.43 6.43 0 0 0 4.547 1.882m-92.02 0a6.44 6.44 0 0 0 4.547-1.882 6.424 6.424 0 0 0-4.548-10.97 6.44 6.44 0 0 0-4.547 1.882 6.424 6.424 0 0 0 4.547 10.97m-13.24 21.75c-3.206 0-6.055 1.305-8.054 3.698a11.8 11.8 0 0 0-2.632 7.434 14 14 0 0 0-3.84-.593c-3.067 0-5.837 1.166-7.796 3.282a11.46 11.46 0 0 0-1.583 13.841 10.48 10.48 0 0 0-3.543 5.576 11.55 11.55 0 0 0 1.583 9.372 10.32 10.32 0 0 0-.732 9.926c2.019 4.587 7.065 8.186 16.86 12.062 6.076 2.412 11.657 3.954 11.696 3.974a87.8 87.8 0 0 0 21.63 3.163c11.597 0 19.889-3.559 24.658-10.558 7.678-11.251 6.59-21.552-3.364-31.478-5.482-5.497-9.143-13.584-9.895-15.364-1.544-5.259-5.62-11.112-12.369-11.112a11.28 11.28 0 0 0-9.103 4.864c-1.979-2.491-3.918-4.449-5.66-5.576a14.66 14.66 0 0 0-7.856-2.511m0 7.909c1.01 0 2.256.435 3.602 1.285 4.235 2.689 12.368 16.669 15.356 22.106.99 1.819 2.712 2.59 4.235 2.59 3.068 0 5.442-3.025.297-6.88-7.757-5.794-5.046-15.265-1.345-15.838.158-.04.336-.04.474-.04 3.365 0 4.849 5.793 4.849 5.793s4.354 10.915 11.834 18.389c7.461 7.454 7.856 13.446 2.414 21.414-3.72 5.438-10.824 7.079-18.127 7.079-7.54 0-15.297-1.78-19.63-2.887-.219-.06-26.618-7.514-23.273-13.841.554-1.068 1.484-1.503 2.651-1.503 4.71 0 13.26 7 16.96 7 .811 0 1.385-.336 1.642-1.187 1.564-5.635-23.866-8.008-21.728-16.154.396-1.443 1.405-2.017 2.85-2.017 6.213 0 20.185 10.935 23.114 10.935.217 0 .395-.06.474-.198 1.465-2.373.654-4.034-9.696-10.282-10.31-6.248-17.573-10.005-13.457-14.493.475-.515 1.148-.752 1.979-.752 6.273 0 21.095 13.485 21.095 13.485s3.998 4.152 6.432 4.152c.554 0 1.029-.197 1.346-.751 1.701-2.887-15.95-16.253-16.94-21.77-.673-3.756.475-5.635 2.592-5.635"/><path fill="#FFD21E" d="M110.387 192.637c5.442-7.988 5.047-13.979-2.414-21.434-7.48-7.454-11.834-18.388-11.834-18.388s-1.623-6.328-5.323-5.734c-3.701.593-6.412 10.044 1.345 15.838 7.738 5.793-1.543 9.728-4.532 4.29-2.968-5.437-11.121-19.417-15.356-22.106-4.215-2.669-7.184-1.186-6.194 4.35.99 5.517 18.661 18.883 16.94 21.75-1.722 2.907-7.778-3.381-7.778-3.381S56.303 150.6 52.167 155.089c-4.117 4.488 3.146 8.245 13.457 14.493 10.35 6.248 11.16 7.909 9.696 10.282-1.484 2.373-24.301-16.866-26.438-8.7-2.138 8.126 23.292 10.479 21.729 16.115-1.584 5.635-17.93-10.638-21.254-4.311-3.365 6.347 23.054 13.802 23.272 13.861 8.51 2.214 30.179 6.901 37.758-4.192"/><path fill="#FF9D0B" d="M187.171 135.909c3.205 0 6.075 1.305 8.054 3.698a11.8 11.8 0 0 1 2.632 7.434 14 14 0 0 1 3.859-.593c3.067 0 5.838 1.167 7.797 3.282a11.466 11.466 0 0 1 1.583 13.841 10.5 10.5 0 0 1 3.523 5.576c.474 1.78.949 5.536-1.584 9.372a10.31 10.31 0 0 1 .733 9.926c-2.019 4.587-7.065 8.186-16.841 12.062-6.095 2.412-11.676 3.954-11.716 3.974a87.8 87.8 0 0 1-21.63 3.164c-11.596 0-19.888-3.56-24.657-10.559-7.679-11.251-6.59-21.552 3.364-31.478 5.501-5.497 9.163-13.584 9.915-15.364 1.543-5.259 5.6-11.112 12.348-11.112a11.28 11.28 0 0 1 9.103 4.864c1.979-2.491 3.919-4.449 5.68-5.576a14.65 14.65 0 0 1 7.837-2.511m0 7.909c-1.01 0-2.237.435-3.602 1.285-4.215 2.689-12.369 16.669-15.357 22.106a4.81 4.81 0 0 1-4.235 2.591c-3.047 0-5.442-3.026-.277-6.881 7.738-5.794 5.027-15.265 1.326-15.838a3 3 0 0 0-.475-.04c-3.364 0-4.848 5.794-4.848 5.794s-4.354 10.914-11.815 18.388c-7.48 7.454-7.876 13.446-2.414 21.414 3.701 5.438 10.825 7.079 18.107 7.079 7.56 0 15.298-1.78 19.651-2.887.198-.059 26.617-7.514 23.273-13.841-.574-1.068-1.484-1.503-2.652-1.503-4.71 0-13.279 7-16.96 7-.831 0-1.405-.336-1.642-1.187-1.583-5.635 23.846-8.008 21.709-16.154-.376-1.443-1.385-2.017-2.85-2.017-6.214 0-20.185 10.935-23.114 10.935-.198 0-.376-.06-.455-.198-1.464-2.373-.673-4.034 9.657-10.282 10.35-6.248 17.613-10.005 13.457-14.493-.455-.514-1.128-.752-1.939-.752-6.293 0-21.116 13.485-21.116 13.485s-3.997 4.153-6.411 4.153a1.47 1.47 0 0 1-1.346-.752c-1.722-2.887 15.93-16.253 16.92-21.77.673-3.756-.475-5.635-2.592-5.635"/><path fill="#FFD21E" d="M145.474 192.637c-5.442-7.988-5.066-13.979 2.414-21.434 7.461-7.454 11.815-18.388 11.815-18.388s1.622-6.328 5.343-5.734c3.681.593 6.392 10.044-1.346 15.838-7.757 5.793 1.544 9.728 4.512 4.29 2.988-5.437 11.142-19.417 15.357-22.106 4.215-2.669 7.203-1.186 6.194 4.35-.99 5.517-18.642 18.883-16.92 21.75 1.702 2.907 7.757-3.381 7.757-3.381s18.959-17.222 23.075-12.733c4.116 4.488-3.127 8.245-13.457 14.493-10.35 6.248-11.141 7.909-9.697 10.282 1.484 2.373 24.302-16.866 26.439-8.7 2.137 8.126-23.272 10.479-21.709 16.115 1.583 5.635 17.909-10.638 21.254-4.311 3.344 6.347-23.055 13.802-23.273 13.861-8.529 2.214-30.198 6.901-37.758-4.192"/></svg>
